X:1
T:Just as He Promised To Do
T:Just as He Promised To Do
T:Charles Hutchinson Gabriel
T:William McPherson Lighthall, 1909
T:Public Domain Courtesy of the Cyber Hymnal™
C:Charles Hutchinson Gabriel
Z:Public Domain
Z:Courtesy of the Cyber Hymnal™
%%score ( 1 2 ) ( 3 4 )
L:1/8
Q:1/4=100
M:4/4
K:G
V:1 treble 
V:2 treble 
V:3 bass 
V:4 bass 
V:1
 [B,D]2 | [DB]3 [^C^A] [DB][DG][=CE][CG] | [B,D]6 [B,D]2 | [Gd]3 [DG] [DF][DG][Dc][DB] | %4
w: 1.~My|Fa- ther will not let me|fall! His|strong and lov- ing arms en-|
w: 2.~My|Sav- ior will not let me|stray! The|path He trod is plain be-|
w: 3.~I|trust Him as a lit- tle|child, Con-|tent be- neath His wings to|
w: 4.~His|love will still re- mem- ber|me In|life, in death, in joy, in|
 [DB]2 [DA]4 D2 | [DB]3 [^C^A] [DB][DG][=CE][CG] | [B,D]6 [B,D]2 | [DG]3 [DA] [DB][DG][Dc][DB] | %8
w: fold me; To|Him I trust my life, my|all, And|know that He will safe- ly|
w: fore me; And|He who said, “I am the|Way” Is|watch- ing, ev- er watch- ing|
w: hide me; Tho’|all a- round is rough and|wild, He|walks the path of peace be-|
w: sor- row; What-|e’er be- tide, He still will|be My|guide to- day, my hope to-|
 [DA]2 [DG]4 z2 |"^Refrain" [Fd]2 [Ec][CE] [DF] [DB]3 | [CA] [B,G]2 [CE] [B,D]3 [B,D] | %11
w: hold me.|||
w: o’er me.|||
w: side me.|||
w: mor- row.|||
 [DG]3 [DA] [DB][Ge][Gd][GB] | [FA]6 (Bc) | [Gd]3 [DB] [Ec] [DB]3 | [DA][DA] [DB]2 [Cc]2 [Ge][Ge] | %15
w: ||||
w: ||||
w: ||||
w: ||||
 [Gd]3 G [GB]2 [DA]2 | [DG]6 |] %17
w: ||
w: ||
w: ||
w: ||
V:2
 x2 | x8 | x8 | x8 | x6 D2 | x8 | x8 | x8 | x8 | x8 | x8 | x8 | x6 G2 | x8 | x8 | x3 G x4 | x6 |] %17
V:3
 [G,,G,]2 | [G,,G,]3 [G,,G,] [G,,G,][B,,G,][B,,G,][E,G,] | G,6 G,2 | %3
w: ~|~ ~ ~ ~ ~ ~|~ ~|
 [G,B,]3 [G,B,] [A,C][G,B,][F,A,]G, | [D,G,]2 [D,F,]4 [D,F,]2 | %5
w: ~ ~ ~ ~ ~ ~|~ ~ ~|
 [G,,G,]3 [G,,G,] [G,,G,][B,,G,][C,G,][E,G,] | G,6 G,2 | [B,,G,]3 [D,F,] G,[G,B,][F,A,]G, | %8
w: ~ ~ ~ ~ ~ ~|~ ~|~ ~ ~ ~ ~ ~|
 [D,C]2 [G,,B,]4 z2 | [D,A,]2 [D,F,][D,F,] [D,A,] [D,F,]3 | %10
w: ~ ~|Just as he prom- ised,|
 [G,,G,] [G,,G,]2 [G,,G,] [G,,G,]3 [G,,G,] | [B,,G,]3 [D,F,] G,[G,C][G,B,][G,D] | [D,D]6 (DA,) | %13
w: prom- ised to do, When|first to Him I trem- bling|came; Now *|
 [G,B,]3 G, G, G,3 | [F,A,][F,A,] [=F,G,]2 [E,G,]2 [C,C][C,C] | [D,B,]3 [D,B,] [D,D]2 [D,C]2 | %16
w: I have trust- ed,|prov- en Him true, Hal- le-|lu- jah to His|
 [G,,B,]6 |] %17
w: name!|
V:4
 x2 | x8 | G,6 G,2 | x7 G, | x8 | x8 | G,6 G,2 | x4 G, x G, x | x8 | x8 | x8 | x4 G, x3 | x6 G,2 | %13
 x3 G, G, G,3 | x8 | x8 | x6 |] %17

